X:1
T:Norfolk -- Hornpipe
R:hornpipe
B:Cole's 1000 Fiddle Tunes
S: Bob Puckette <BobP:at:workcom.com> 2003-3-7
M:2/4
L:1/16
K:G
vD>B,|G,>B,D>G B>GD>B,|C>EA>B c>BA>c|B>dg>d "4"e>cA>G|(3FG"4"A (3GFE (3DED (3CB,G,|
G,>B,D>G B>GD>B,|C>EA>B c>de>f|{a}g>fg>e (3d"4"ed (3cBA|G>Bd>B g2 :|
|:(uBc)|d>(g{ag}fg) e>(g{ag}fg)|b>ga>f g>ed>B|(3cd"4"e (3ABc (3Bcd (G>B)|((3"4"AGF) ((3"4"AGE) .D2(Bc)|
d>(g{ag}fg) e>(g{ag}fg)|b>ga>f g>ed>B|c>de>f {a}g>fg>e|d>Bc>a G2:|
